www/assets/icons/subscript.svg

<svg xmlns="http://www.w3.org/2000/svg" width="24" height="24" viewBox="0 0 24 24" fill='currentColor'><path d="M19.56 18h-2v1h3v1h-4v-2c0-.55.45-1 1-1h2v-1h-3v-1h3c.55 0 1 .45 1 1v1c0 .55-.45 1-1 1M3.44 18H6.1l3.4-5.42h.12l3.4 5.42h2.66l-4.65-7.27L15.37 4h-2.68L9.62 8.99H9.5L6.41 4H3.75l4.32 6.73z"/></svg>

<svg width="24" height="24" viewBox="0 0 24 24" xmlns="http://www.w3.org/2000/svg" fill='currentColor'><path d="M19.56 18H17.56V19H20.56V20H16.56V18C16.56 17.45 17.01 17 17.56 17H19.56V16H16.56V15H19.56C20.11 15 20.56 15.45 20.56 16V17C20.56 17.55 20.11 18 19.56 18ZM3.44 18H6.1L9.5 12.58H9.62L13.02 18H15.68L11.03 10.73L15.37 4H12.69L9.62 8.99H9.5L6.41 4H3.75L8.07 10.73L3.44 18Z"/></svg>
